X:1
T:Whom Have I in Heaven?
T:William Fiske Sherwin
T:Whom Have I in Heaven?
T:Public Domain
T:Public Domain
C:William Fiske Sherwin
Z:Public Domain
%%score 1 ( 2 3 )
L:1/8
M:6/8
K:Eb
V:1 treble 
V:2 bass 
V:3 bass 
V:1
 [EB]2 [EB] [EG]2 [B,E] | [B,F]2 [B,G] [B,E]3 | [Ec]2 [EB] [Ec]2 [EB] | [EG]3 [DF]3 | %4
w: 1.~Whom have I in|Heav’n a- bove?|On- ly Thee, my|Sav- ior;|
w: 2.~Who has led me|all my days?|On- ly Thou, my|Sav- ior;|
w: 3.~Who my in- most|thoughts can read?|On- ly Thou, my|Sav- ior;|
 [FB]2 [FB] [EG]2 [B,E] | [DF]2 [DG] E3 | [Ec]2 [Ec] [EB]2 [EG] | [DF]3 E3 | %8
w: Whom have I on|earth to love?|On- ly Thee, my|Sav- ior;|
w: Who de- serves my|high- est praise?|On- ly Thou, my|Sav- ior;|
w: Who for me doth|in- ter- cede?|On- ly Thou, my|Sav- ior;|
 [DF]2 [^C=E] [DF]2 [FB] | [E=A]2 [DB] [Fc]3 | [FB]2 [Fc] [Fd]2 [=EB] | [Fd]2 [Ec] ([DB]2 [FA]) | %12
w: Who my wound- ed|heart can heal,|who my ev- ery|sor- row feel, *|
w: In my weak- ness|who is strong,|who has loved and|loved me long, *|
w: Who my sec- ret|thoughts can know,|who such ten- der|mer- cy show, *|
 [EG]2 [GB] [Ae]2 [Ac] | [GB]2 [EG] [GB]3 | [Ac]2 [GB] [EG]2 E | ([EG]2 [B,F]) [B,E]3 |] %16
w: Who the light of|joy re- veal?|On- ly Thee, my|Sav- * ior.|
w: Who should claim my|nob- lest song?|On- ly Thou, my|Sav- * ior.|
w: Who can make me|white as snow?|On- ly Thou, my|Sav- * ior.|
V:2
 [E,G,]2 [E,G,] [E,B,]2 [E,G,] | [B,,A,]2 [B,,B,] [E,G,]3 | [E,A,]2 [E,G,] [E,A,]2 [E,G,] | %3
 [B,,B,]3 [B,,B,]3 | [D,B,]2 [D,B,] [E,B,]2 [E,G,] | [B,,A,]2 [B,,B,] [C,G,]3 | %6
 [A,,A,]2 [A,,A,] [E,G,]2 [E,B,] | [B,,A,]3 [E,G,]3 | [B,,B,]2 [B,,G,] [B,,F,]2 [D,F,] | %9
 [F,C]2 [F,B,] [F,A,]3 | [D,B,]2 [F,=A,] B,2 [G,B,] | [F,B,]2 [F,=A,] [B,,B,]3 | %12
 [E,B,]2 [E,B,] [E,C]2 [E,E] | [E,E]2 [E,B,] [E,E]3 | [E,E]2 [E,E] [E,B,]2 [C,=A,] | %15
 (B,2 A,) [E,G,]3 |] %16
V:3
 x6 | x6 | x6 | x6 | x6 | x6 | x6 | x6 | x6 | x6 | x6 | x6 | x6 | x6 | x6 | B,,3 x3 |] %16

